X:1
T:Title
%%score ( 1 2 ) ( 3 4 ) { ( 5 8 10 ) | ( 6 7 9 ) }
L:1/8
Q:1/4=82
M:4/4
K:C
V:1 treble nm="Choir Aahs, Choir"
V:2 treble 
V:3 bass nm="Choir Aahs"
V:4 bass 
V:5 treble nm="Grand Piano"
V:8 treble 
V:10 treble 
V:6 bass 
V:7 bass 
V:9 bass 
V:1
 z8 | z8 | EF^FA Gedc | d>c BA G4 | G>D DE FcBA | G>D GA G4 | EF^FA G<f eB | dcBc D4 | %8
[M:9/8] ccB- B/A/ c2 ^F3 |[M:4/4] G>c cB c4 |[M:6/8] [CE]3 [B,F]3 | [CG]3 [Ec]3 | %12
 [EB]3- [EB]2 [CA] | [EG]6 | [FA]3 [FB]3 | [Ec]3 [DG]3 | [CE]3 [D^F]3 | [DG]6 | [Ec]2 [Ec] cB[EA] | %19
 [EB]6 | [EA]2 [EA] [FA][GB][Ac] | G6 | .[Ec]3 .[E^c]3 |[M:15/16] [Fd]3/2 z3/2 [_EA]3/2- [EA]3 | %24
[M:3/4] [EG]2 [Ec][B,E] [B,D]2 | C6 |] %26
V:2
 x8 | x8 | x8 | x8 | x8 | x8 | x8 | x8 |[M:9/8] x9 |[M:4/4] x8 |[M:6/8] x6 | x6 | x6 | x6 | x6 | %15
 x6 | x6 | x6 | z3 .E3 | x6 | x6 | z3 F3 | x6 |[M:15/16] x15/2 |[M:3/4] x6 | x6 |] %26
V:3
 z8 | z8 | z8 | z8 | z8 | z8 | z8 | z8 |[M:9/8] z9 |[M:4/4] z8 |[M:6/8] [B,,G,]3 [D,G,]3 | %11
 [E,C]3 [A,C]3 | [E,D]3- [E,D]2 [F,C] | [C,C]6 | [F,C]3 [D,G,]3 | [C,G,]3 G,2 D | [A,,A,]3 [D,C]3 | %17
 [G,,B,]6 | [A,,A,]2 [A,,A,] [A,,A,]2 [C,A,] | [E,^G,]6 | [A,C]2 [A,C] [F,C]2 [F,C] | %21
 [E,C]3 [D,B,]3 | .C,3 G,3 |[M:15/16] [F,,A,]3 [F,,C]3/2- [F,,C]3 | %24
[M:3/4] [G,,C]2 [G,,G,][G,,G,] [G,,F,]2 | [C,E,]6 |] %26
V:4
 x8 | x8 | x8 | x8 | x8 | x8 | x8 | x8 |[M:9/8] x9 |[M:4/4] x8 |[M:6/8] x6 | x6 | x6 | x6 | x6 | %15
 z3 B,,3 | x6 | x6 | x6 | x6 | x6 | x6 | G,2- [_B,,G,] A,,2 G,, |[M:15/16] x15/2 |[M:3/4] x6 | %25
 x6 |] %26
V:5
 [C_Ec]cBA [C=EGc]2 [C_E^F]2 | .[CEG]2 E<D C4 | EF^FA [EG][Ge] .[^Gd]2 | [Ad]2 BA z F z _B, | %4
w: Fred~H.~Byshe * * * * *||||
 [B,FG]>[B,D] DE Fc[GB]A | [B,DG]>D GA [B,FG]4 | [G,CE][DF]_E-[EA] [C=EG]<[Bf] [^Ge][GB] | %7
w: |||
 [Bd]cBc [CD]4 |[M:9/8] ccB- B/A/ [CEGc]2 [C_E^F]3 |[M:4/4] G2 z2 z4 |[M:6/8] EEE FFF | GGG ccc | %12
w: |||||
 [^GB]BB BB[CFA] | [CEG][CEG][CEG] [CEG][CEG][CEG] | A3 B3 | c3 G3 | E3 ^F3 | G3 .G3[K:bass] | %18
w: ||||||
 z2 c cBA | [E^GB]3 [DEGB]3 | A3 z3 | [CG]3 [B,FG]3 | z G[EG] ^c[GA][EGA] | %23
w: |||||
[M:15/16] .[Fd]3 z3/2 z3 |[M:3/4] [CEG]2 cE D2 | C6 |] %26
w: |||
V:6
 z [C_E][CE][CE] [G,,G,]2 ^G,,2 | z2[K:treble] B,2[K:bass] z4 | %2
 [G,C][B,D]_E-[^F,E] .G,2[K:treble] z c | z z/ c/ GF[K:bass] [E,C][D,B,][C,C]^C, | %4
 D,2 [F,B,][E,C] DA z F | z z/ B,/ [E,_B,^C]2 D,2 G,,2 | z B,A,^F, C,<[K:treble]A z E | %7
 z G^GA[K:bass] F,,4 |[M:9/8] [C_E][CE][CE]- [CE]/[CE]/ [G,,G,]2 ^G,,3 |[M:4/4] z2 [DF]2 [C,G,]4 | %10
[M:6/8] [G,C][G,C][G,C] [G,B,][G,B,][G,B,] | [G,C][K:treble][G,C][G,C] [CEA][CEA][CEA] | %12
 [DE][DE^G][DEG] [DEG]G[K:bass]F, | C,E,A, G,E,C, | z CC z[K:treble] [DF][DF] | z EE [B,,G,]3 | %16
 [A,,A,]3 z CC | z B,B, .[B,D]3 | .[A,,A,]2 E [E,A,CE][E,A,CE][E,A,CE] | E,E,^F, ^G,A,B, | %20
 z CC [F,F]3 | E,3 D,3 | z E_B,, z EG,, | %23
[M:15/16] z[K:treble] A/-A/F[K:bass][^F,,^F,]3/2- [F,,F,]3 |[M:3/4] G,2- [G,-E][G,B,] [F,G,B,]2 | %25
 [C,E,G,]6 |] %26
V:7
 [^F,,^F,]4 z4 | z[K:treble] c z/[K:bass] [F,G,]3/2 [C,E,G,]4 | z2 .A,2 z[K:treble] C3- | %3
 C4[K:bass] z4 | z z/ G,/- G,2 [D,G,-]2 G,2- | G,8 | C,4 z2[K:treble] [E,B,]2 | A,8[K:bass] | %8
[M:9/8] .[^F,,A,]6 z3 |[M:4/4] G,,4 z4 |[M:6/8] C,3 D,3 | E,3[K:treble] A,3 | E,6[K:bass] | x6 | %14
 F,3 [D,G,]3[K:treble] | ^C,3 z3 | z3 D,3 | .[G,,G,]6 | z [E,A,]2 z3 | x6 | A,3 z3 | x6 | %22
 .C,3 .A,,3 |[M:15/16] F,,3[K:treble][K:bass] z3/2 z3 |[M:3/4] G,,6 | x6 |] %26
V:8
 x8 | .G,4 z4 | x8 | z4 G4 | x8 | x8 | z2 .^F2 z4 | E4 z4 |[M:9/8] x9 | %9
[M:4/4] [G,CE]->[G,-CEc] [G,-c][G,B] [Ec]4 |[M:6/8] x6 | x6 | x6 | x6 | z FF z GG | z GG z DD | %16
 z CC z DD | z DD z[K:bass] A,,B,, | .[Ec]3 z3 | x6 | z EE ABc | x6 | [Cc]3 .^C3 | %23
[M:15/16] z f/-f/d[C_EA]3/2- [CEA]3 |[M:3/4] x6 | x6 |] %26
V:9
 x8 | G,,4[K:treble][K:bass] z4 | C,6[K:treble] E,2 | F,4[K:bass] z4 | z4 z2 G,,2 | F,2 z2 z4 | %6
 x9/2[K:treble] x7/2 | x4[K:bass] x4 |[M:9/8] x9 |[M:4/4] x8 |[M:6/8] x6 | x[K:treble] x5 | %12
 x5[K:bass] x | x6 | x4[K:treble] x2 | x6 | x6 | x6 | x6 | x6 | x6 | x6 | x6 | %23
[M:15/16] x[K:treble] x2[K:bass] x9/2 |[M:3/4] x6 | x6 |] %26
V:10
 x8 | x8 | x8 | z4 z2 E2 | x8 | x8 | x8 | x8 |[M:9/8] x9 |[M:4/4] x8 |[M:6/8] x6 | x6 | x6 | x6 | %14
 x6 | x6 | x6 | x4[K:bass] x2 | z C2 z3 | x6 | x6 | x6 | x6 |[M:15/16] x15/2 |[M:3/4] x6 | x6 |] %26

